src/4-icons/password.svg

<svg width="260" height="260" viewBox="0 0 260 260" fill="none" xmlns="http://www.w3.org/2000/svg">
<g opacity="0.9">
<path d="M204 95.126C201.209 92.626 197.584 91.0423 193.5 91.0423H183V101.542H193.5C196.334 101.542 198.751 103.959 198.751 106.791V180.25C198.751 183.083 196.334 185.5 193.5 185.5H183V196H193.5C197.541 196 201.209 194.416 204 191.916C206.791 194.416 210.459 196 214.5 196H225V185.5H214.5C211.666 185.5 209.249 183.083 209.249 180.25V106.749C209.249 103.915 211.624 101.5 214.5 101.5H225V91H214.5C210.459 91.0407 206.791 92.5837 204 95.1244V95.126Z" fill="black"/>
<path d="M59.2091 136.746L73.3864 131.76L76 139.07L61.7806 143.803L70.5687 156.311L64.1432 161L55.6449 147.985L47.022 161L40.3892 156.311L49.302 143.803L35 139.07L37.5699 131.719L51.6646 136.873V122H59.2091V136.746Z" fill="black"/>
<path d="M126.43 131.76L112.21 136.746V122H104.665V136.873L90.6121 131.719L88 139.07L102.303 143.803L93.3894 156.311L100.022 161L108.646 147.985L117.144 161L123.611 156.311L114.822 143.803L129 139.07L126.43 131.76Z" fill="black"/>
<path d="M163.8 136.746L178.366 131.76L181 139.07L166.477 143.803L175.479 156.311L168.897 161L160.192 147.985L151.358 161L144.564 156.311L153.694 143.803L139 139.07L141.676 131.719L156.071 136.873V122H163.8V136.746Z" fill="black"/>
<path fill-rule="evenodd" clip-rule="evenodd" d="M20 61C8.95431 61 0 69.9543 0 81V206C0 217.046 8.9543 226 20 226H240C251.046 226 260 217.046 260 206V81C260 69.9543 251.046 61 240 61H20ZM29 75C20.7157 75 14 81.7157 14 90V197C14 205.284 20.7157 212 29 212H231C239.284 212 246 205.284 246 197V90C246 81.7157 239.284 75 231 75H29Z" fill="black"/>
</g>
</svg>

<svg width="260" height="260" viewBox="0 0 260 260" fill="none" xmlns="http://www.w3.org/2000/svg"><g opacity=".9" fill="#000"><path d="M204 95.126c-2.791-2.5-6.416-4.084-10.5-4.084H183v10.5h10.5c2.834 0 5.251 2.417 5.251 5.249v73.459c0 2.833-2.417 5.25-5.251 5.25H183V196h10.5c4.041 0 7.709-1.584 10.5-4.084 2.791 2.5 6.459 4.084 10.5 4.084H225v-10.5h-10.5c-2.834 0-5.251-2.417-5.251-5.25v-73.501c0-2.834 2.375-5.249 5.251-5.249H225V91h-10.5a15.756 15.756 0 0 0-10.5 4.124v.002Zm-144.79 41.62 14.176-4.986L76 139.07l-14.22 4.733 8.789 12.508L64.143 161l-8.498-13.015L47.022 161l-6.633-4.689 8.913-12.508L35 139.07l2.57-7.351 14.095 5.154V122h7.544v14.746Zm67.22-4.986-14.22 4.986V122h-7.545v14.873l-14.053-5.154L88 139.07l14.303 4.733-8.914 12.508 6.633 4.689 8.624-13.015L117.144 161l6.467-4.689-8.789-12.508L129 139.07l-2.57-7.31Zm37.37 4.986 14.566-4.986 2.634 7.31-14.523 4.733 9.002 12.508-6.582 4.689-8.705-13.015L151.358 161l-6.794-4.689 9.13-12.508L139 139.07l2.676-7.351 14.395 5.154V122h7.729v14.746Z"/><path fill-rule="evenodd" clip-rule="evenodd" d="M20 61C8.954 61 0 69.954 0 81v125c0 11.046 8.954 20 20 20h220c11.046 0 20-8.954 20-20V81c0-11.046-8.954-20-20-20H20Zm9 14c-8.284 0-15 6.716-15 15v107c0 8.284 6.716 15 15 15h202c8.284 0 15-6.716 15-15V90c0-8.284-6.716-15-15-15H29Z"/></g></svg>
